images/return.svg

<svg width="48" height="43" viewBox="0 0 48 43" fill="none" xmlns="http://www.w3.org/2000/svg">
<path d="M47.4998 5.81415C47.4998 5.80901 47.4992 5.80387 47.499 5.79864C47.4984 5.77818 47.4972 5.75799 47.4948 5.73798C47.4939 5.73064 47.4925 5.7233 47.4914 5.71595C47.4886 5.69751 47.4852 5.67934 47.4809 5.66153C47.4792 5.65447 47.4774 5.64749 47.4754 5.64043C47.47 5.62106 47.4639 5.60207 47.4569 5.58334C47.4556 5.57976 47.4547 5.57609 47.4533 5.57261L45.5659 0.79291C45.3756 0.31129 44.9148 0 44.392 0H40.9553C40.5807 0 40.2771 0.30037 40.2771 0.67095C40.2771 1.04153 40.5807 1.3419 40.9553 1.3419H44.3263L45.8284 5.14577H31.6273L30.7375 1.3419H35.9822C36.3568 1.3419 36.6605 1.04153 36.6605 0.67095C36.6605 0.30037 36.3568 0 35.9822 0H8.54222C8.01935 0 7.55864 0.31129 7.36836 0.7931L5.48089 5.57261C5.4795 5.57619 5.47876 5.57986 5.47737 5.58334C5.47032 5.60197 5.46419 5.62097 5.45881 5.64043C5.45686 5.64749 5.45501 5.65447 5.45334 5.66153C5.44907 5.67943 5.44564 5.6976 5.44286 5.71595C5.44174 5.7233 5.44035 5.73064 5.43942 5.73798C5.4371 5.75799 5.4358 5.77818 5.43525 5.79864C5.43516 5.80378 5.43451 5.80892 5.43441 5.81415C5.43441 5.81498 5.43432 5.8158 5.43432 5.81663V15.6739C5.43432 16.0445 5.73797 16.3449 6.11259 16.3449C6.4872 16.3449 6.79085 16.0445 6.79085 15.6739V6.48767H21.1681V16.6862C21.1681 17.085 21.4056 17.4484 21.7733 17.6121C21.9079 17.672 22.0512 17.7013 22.1936 17.7013C22.44 17.7013 22.6837 17.6137 22.8748 17.4461L26.4671 14.298L30.0594 17.446C30.361 17.7106 30.7935 17.7757 31.1612 17.6121C31.5287 17.4483 31.7662 17.085 31.7662 16.6862V6.48767H46.1434V36.582C46.1434 37.0634 45.7473 37.4552 45.2606 37.4552H32.8241C32.8241 37.4476 32.8232 37.4399 32.8231 37.4323C32.8224 37.3721 32.8201 37.312 32.8149 37.2524C33.9827 37.5586 35.2304 36.9649 35.6983 35.8297C35.9445 35.2325 35.9408 34.5764 35.688 33.982C35.6642 33.9261 35.6379 33.8717 35.6103 33.8182C35.6052 33.8084 35.6003 33.7985 35.5952 33.7888C35.568 33.7378 35.539 33.6879 35.5085 33.6394C35.5026 33.6299 35.4965 33.6207 35.4904 33.6114C35.4581 33.5615 35.4246 33.5126 35.3889 33.4656C35.3883 33.4646 35.3875 33.4638 35.3869 33.463C35.3514 33.4165 35.314 33.3717 35.2753 33.3279C35.2682 33.3199 35.2613 33.3118 35.2541 33.3039C35.2158 33.2616 35.176 33.2208 35.1348 33.1814C35.1268 33.1737 35.1186 33.1663 35.1104 33.1588C35.0673 33.1187 35.0231 33.0797 34.9771 33.0429C34.9755 33.0417 34.974 33.0405 34.9724 33.0393C34.9271 33.0032 34.8801 32.9691 34.8321 32.9362C34.8235 32.9302 34.8149 32.9242 34.8061 32.9183C34.7582 32.8864 34.709 32.8562 34.6585 32.8275C34.6543 32.8251 34.6505 32.8223 34.6463 32.8199C34.9329 32.5745 35.1592 32.264 35.3065 31.9066C35.5527 31.3095 35.5491 30.6533 35.2962 30.0589C35.0751 29.5388 34.6863 29.1205 34.1883 28.861C34.1171 28.8239 34.0437 28.79 33.9683 28.7596L23.4119 24.5017L28.3257 22.9972C29.4948 22.6392 30.1532 21.4057 29.7934 20.2478C29.6592 19.8156 29.393 19.4511 29.0492 19.1847C28.5375 18.7881 27.8537 18.6091 27.1755 18.7499C27.1723 18.7507 27.1691 18.7512 27.1659 18.752C27.1283 18.7604 23.3613 19.5983 19.4271 20.3571C19.2526 20.3908 19.0826 20.4233 18.9149 20.4553C18.7808 20.4808 18.6485 20.5059 18.5187 20.5303C18.4814 20.5374 18.444 20.5444 18.407 20.5513C18.1778 20.5944 17.9558 20.6356 17.74 20.6752C17.6532 20.6912 17.5671 20.707 17.4824 20.7224C12.5416 21.6228 11.1536 21.6389 10.7684 21.5874C10.7669 21.5872 10.7656 21.587 10.7641 21.5867C10.7583 21.5859 10.7525 21.5851 10.7472 21.5842C10.7433 21.5836 10.7396 21.583 10.736 21.5824C10.7334 21.5819 10.7306 21.5815 10.7281 21.5811C10.7041 21.5768 10.6854 21.5723 10.6709 21.568L10.5598 21.5232L10.6983 21.1872C10.8345 20.8568 10.8324 20.4938 10.6926 20.165C10.6576 20.0827 10.6151 20.0051 10.5657 19.9328C10.4176 19.7159 10.2082 19.5471 9.95776 19.446L6.31474 17.9767C5.98085 17.8418 5.61374 17.844 5.28134 17.9823C4.94884 18.1206 4.69084 18.3787 4.55465 18.709L0.0999554 29.5164C-0.181147 30.1984 0.151074 30.9793 0.840471 31.2575L4.48358 32.727C4.64992 32.7941 4.82202 32.8258 4.99151 32.8258C5.52431 32.8258 6.0303 32.5118 6.24358 31.9944L6.27707 31.9132L7.11704 32.252C7.1175 32.2521 7.11797 32.2524 7.11853 32.2526C7.92194 32.5766 8.66218 33.039 9.30287 33.6128C9.41939 33.7171 9.53258 33.8251 9.64233 33.9366C9.75208 34.0481 9.85821 34.1632 9.96072 34.2816C10.0119 34.3408 10.0623 34.4009 10.1116 34.4617C11.0451 35.6133 12.269 36.5166 13.6507 37.074L14.5957 37.4551H7.67368C7.18699 37.4551 6.79094 37.0633 6.79094 36.5819V34.8842C6.79094 34.5136 6.4873 34.2132 6.11268 34.2132C5.73806 34.2132 5.43441 34.5136 5.43441 34.8842V36.5819C5.43441 37.8033 6.43887 38.797 7.67368 38.797H17.9226L26.6601 42.3212C26.9609 42.4426 27.272 42.5001 27.5784 42.5C28.5413 42.5 29.4559 41.9324 29.8414 40.9973C29.9995 40.6138 30.0502 40.2129 30.0076 39.8276C30.4621 39.8921 30.9333 39.8329 31.3604 39.6505C31.7945 39.465 32.1543 39.1696 32.4098 38.7969H45.2607C46.4955 38.7969 47.5 37.8033 47.5 36.5818V5.81672C47.4999 5.8158 47.4998 5.81507 47.4998 5.81415ZM23.5892 1.3419H29.345L30.2348 5.14577H22.6994L23.5892 1.3419ZM21.3071 5.14577H7.10582L8.60791 1.3419H22.1969L21.3071 5.14577ZM30.4099 15.9603L27.1477 13.1016C26.9537 12.9317 26.7105 12.8467 26.4673 12.8467C26.2241 12.8467 25.9807 12.9317 25.7867 13.1016L22.5247 15.9603V6.48767H30.4099V15.9603ZM4.98984 31.482L1.35842 30.0173L5.80838 19.2216L9.4398 20.6864L4.98984 31.482ZM31.309 35.217C31.3087 35.2168 31.3083 35.2168 31.3079 35.2166L23.1997 31.9462C22.8529 31.8063 22.4571 31.971 22.3156 32.3142C22.1741 32.6573 22.3407 33.0489 22.6876 33.1889L30.7949 36.4589C30.8288 36.4726 30.8615 36.4877 30.8931 36.5043C30.902 36.509 30.9103 36.5147 30.919 36.5196C30.9413 36.532 30.9636 36.5445 30.9847 36.5584C30.9948 36.5651 31.0041 36.5728 31.0139 36.5798C31.0326 36.593 31.0516 36.606 31.0692 36.6203C31.0799 36.629 31.0895 36.6386 31.0998 36.6476C31.1156 36.6614 31.1318 36.6748 31.1466 36.6895C31.1569 36.6996 31.1661 36.7107 31.1759 36.7212C31.1895 36.7357 31.2036 36.7499 31.2164 36.7651C31.2261 36.7768 31.2346 36.7892 31.2439 36.8012C31.2555 36.8163 31.2676 36.831 31.2782 36.8466C31.2872 36.8597 31.2949 36.8734 31.3033 36.8867C31.3129 36.9022 31.3231 36.9173 31.332 36.9332C31.3399 36.9475 31.3466 36.9625 31.3539 36.977C31.3617 36.9927 31.3702 37.0082 31.3772 37.0242C31.384 37.0396 31.3895 37.0556 31.3955 37.0713C31.4016 37.0872 31.4083 37.1028 31.4137 37.1189C31.4191 37.1352 31.4231 37.1518 31.4277 37.1682C31.4322 37.1844 31.4373 37.2004 31.4412 37.2168C31.445 37.2335 31.4474 37.2503 31.4504 37.267C31.4535 37.2837 31.457 37.3003 31.4592 37.3171C31.4615 37.334 31.4623 37.3511 31.4637 37.3681C31.4651 37.3852 31.4671 37.4021 31.4677 37.4192C31.4682 37.436 31.4674 37.453 31.4672 37.4699C31.467 37.4873 31.4673 37.5047 31.4662 37.5223C31.4652 37.5389 31.4627 37.5555 31.4608 37.5721C31.4589 37.59 31.4574 37.6079 31.4544 37.6257C31.4517 37.642 31.4475 37.6583 31.4441 37.6746C31.4402 37.6927 31.437 37.7108 31.4321 37.7288C31.4278 37.7446 31.422 37.7604 31.4169 37.7762C31.4112 37.7942 31.4059 37.8122 31.3991 37.8299C31.3934 37.8421 31.3877 37.8544 31.3824 37.8668C31.3812 37.8696 31.3806 37.8726 31.3795 37.8753C31.2735 38.1173 31.0779 38.3096 30.8225 38.4187C30.5414 38.5386 30.2196 38.5429 29.9394 38.4298L28.503 37.8504C28.4963 37.8478 28.4896 37.8459 28.4829 37.8435C28.4761 37.8404 28.4697 37.837 28.4628 37.8342L21.8689 35.1745C21.5218 35.0347 21.1262 35.1993 20.9848 35.5425C20.8433 35.8857 21.0098 36.2773 21.3567 36.4172L27.9507 39.0769C27.9577 39.0797 27.9648 39.0818 27.972 39.0843C27.9784 39.0871 27.9843 39.0905 27.9909 39.093C28.5443 39.3163 28.811 39.9433 28.5854 40.4907C28.3597 41.0383 27.7261 41.3023 27.1725 41.0788L18.3131 37.5054C18.3127 37.5052 18.3124 37.505 18.312 37.5048L14.1632 35.8314C13.4329 35.5368 12.7547 35.1279 12.156 34.6249C11.7968 34.3231 11.4662 33.9875 11.1701 33.6222C10.8783 33.2624 10.5583 32.9268 10.2139 32.6183C9.45622 31.9398 8.58091 31.3931 7.631 31.0099C7.63091 31.0099 7.6311 31.0099 7.631 31.0099L6.78964 30.6706L10.0479 22.7659L10.1647 22.813C10.2747 22.8573 10.4315 22.9203 10.8534 22.936C11.3805 22.9596 12.2526 22.9052 13.8149 22.6869C14.8776 22.5384 16.1812 22.3236 17.7029 22.0467C17.7404 22.0399 17.7776 22.0331 17.8155 22.0262C17.8866 22.0132 17.9585 22 18.0307 21.9867C18.0868 21.9765 18.1432 21.966 18.2001 21.9555C18.2649 21.9434 18.3299 21.9314 18.3954 21.9192C18.4649 21.9063 18.5352 21.8931 18.6059 21.8798C18.6625 21.8692 18.719 21.8586 18.7761 21.8479C18.8623 21.8317 18.95 21.815 19.0379 21.7983C19.0832 21.7897 19.128 21.7813 19.1737 21.7726C19.3084 21.7469 19.4448 21.7209 19.5838 21.6942C23.5045 20.9398 27.2887 20.1002 27.4588 20.0624C27.4757 20.0589 27.4927 20.0569 27.5097 20.0544C27.9454 19.9906 28.3722 20.2399 28.4972 20.642C28.5411 20.7833 28.5462 20.9275 28.5185 21.0632C28.4577 21.3617 28.2384 21.6193 27.925 21.7152L21.2006 23.774C20.9268 23.8579 20.7359 24.1027 20.7235 24.3859C20.7111 24.669 20.8798 24.9293 21.1451 25.0363L33.4565 30.0022C33.7246 30.1104 33.9341 30.3153 34.0463 30.5793C34.1586 30.8433 34.1602 31.1348 34.0509 31.3999C33.9415 31.6652 33.7344 31.8724 33.4675 31.9834C33.3341 32.0389 33.1937 32.0669 33.0532 32.0678C33.0511 32.0678 33.0491 32.0675 33.0471 32.0675C33.014 32.0675 32.9811 32.0662 32.9482 32.0632C32.9384 32.0623 32.9288 32.0602 32.919 32.0591C32.8939 32.0561 32.8687 32.0533 32.8438 32.0485C32.828 32.0455 32.8124 32.0409 32.7968 32.0372C32.778 32.0328 32.7592 32.029 32.7406 32.0236C32.7214 32.018 32.7026 32.0106 32.6837 32.0039C32.6686 31.9986 32.6533 31.9942 32.6385 31.9882L24.5305 28.7178C24.1836 28.5778 23.7878 28.7426 23.6463 29.0858C23.5049 29.4289 23.6714 29.8205 24.0184 29.9605L33.8481 33.9253C33.9152 33.9523 33.9786 33.9854 34.0377 34.024C34.215 34.1396 34.3539 34.3044 34.438 34.5024C34.5362 34.7334 34.5498 34.9854 34.4784 35.2224C34.4682 35.2563 34.4562 35.2899 34.4425 35.323C34.4284 35.3573 34.4128 35.3904 34.3956 35.4223C34.3556 35.4967 34.3069 35.5638 34.2525 35.6251C34.2188 35.663 34.1827 35.6985 34.1443 35.731C34.1382 35.7361 34.1326 35.742 34.1264 35.7469C33.8789 35.9472 33.5479 36.0333 33.2246 35.9686C33.159 35.9555 33.0938 35.9369 33.0296 35.911L31.309 35.217Z" fill="#F2AB00"/>
</svg>

<svg width="48" height="43" fill="none" xmlns="http://www.w3.org/2000/svg"><path d="m47.5 5.814-.001-.015c0-.02-.002-.041-.004-.061l-.004-.022a.643.643 0 0 0-.034-.133l-.004-.01-1.887-4.78A1.253 1.253 0 0 0 44.392 0h-3.437c-.374 0-.678.3-.678.671 0 .37.304.67.678.67h3.371l1.502 3.805h-14.2l-.89-3.804h5.244c.375 0 .678-.3.678-.671A.675.675 0 0 0 35.983 0H8.542C8.02 0 7.56.311 7.368.793l-1.887 4.78-.004.01a.651.651 0 0 0-.034.133l-.004.022a.686.686 0 0 0-.004.06v9.876c0 .37.303.67.678.67.374 0 .678-.3.678-.67V6.488h14.377v10.198a1.016 1.016 0 0 0 1.026 1.015c.246 0 .49-.087.68-.255l3.593-3.148 3.592 3.148c.302.265.735.33 1.102.166.368-.164.605-.527.605-.926V6.488h14.377v30.094a.88.88 0 0 1-.882.873H32.824v-.023c-.002-.06-.004-.12-.01-.18a2.451 2.451 0 0 0 2.884-1.422 2.374 2.374 0 0 0-.088-2.012l-.015-.03a2.421 2.421 0 0 0-.087-.149c-.005-.01-.012-.018-.018-.028a2.366 2.366 0 0 0-.101-.145l-.002-.003a2.446 2.446 0 0 0-.112-.135l-.02-.024a2.377 2.377 0 0 0-.12-.123l-.025-.022a2.368 2.368 0 0 0-.133-.116l-.005-.004a2.42 2.42 0 0 0-.314-.212l-.012-.007a2.405 2.405 0 0 0-.678-4.06l-10.556-4.258 4.914-1.505a2.2 2.2 0 0 0 1.467-2.75 2.154 2.154 0 0 0-.744-1.062 2.303 2.303 0 0 0-1.873-.435l-.01.002a315.808 315.808 0 0 1-8.759 1.8 154.326 154.326 0 0 1-.925.17c-4.94.9-6.328.917-6.714.865h-.004l-.017-.003a.9.9 0 0 1-.011-.002h-.008a.534.534 0 0 1-.057-.014l-.111-.045.138-.336a1.314 1.314 0 0 0-.132-1.254 1.339 1.339 0 0 0-.608-.487l-3.643-1.47a1.354 1.354 0 0 0-1.76.733L.1 29.516a1.332 1.332 0 0 0 .74 1.742l3.644 1.469a1.353 1.353 0 0 0 1.76-.733l.033-.08.84.338h.002a7.46 7.46 0 0 1 2.993 2.21 8.806 8.806 0 0 0 3.539 2.612l.945.381H7.674a.88.88 0 0 1-.883-.873v-1.698a.675.675 0 0 0-.678-.67c-.375 0-.679.3-.679.67v1.698c0 1.221 1.005 2.215 2.24 2.215h10.249l8.737 3.524a2.445 2.445 0 0 0 3.181-1.324c.159-.383.21-.784.167-1.17.454.065.925.006 1.352-.176.434-.186.794-.481 1.05-.854h12.85c1.236 0 2.24-.994 2.24-2.215V5.814zM23.59 1.342h5.755l.89 3.804h-7.536l.89-3.804zm-2.283 3.804H7.106l1.502-3.804h13.589l-.89 3.804zM30.41 15.96l-3.262-2.858a1.031 1.031 0 0 0-1.361 0l-3.262 2.858V6.488h7.885v9.472zM4.99 31.482l-3.632-1.465 4.45-10.795 3.632 1.464-4.45 10.796zm26.319 3.735h-.001l-8.108-3.27a.68.68 0 0 0-.884.367.669.669 0 0 0 .372.875l8.107 3.27c.034.014.066.029.098.045l.026.016c.022.012.045.024.066.038l.029.022c.019.013.038.026.055.04l.03.028c.017.013.033.027.048.041l.029.032c.014.015.028.029.04.044l.028.036c.012.015.024.03.034.046.01.013.017.026.025.04l.029.046.022.044.023.047.018.047.019.048.014.05c.004.015.01.031.013.048l.01.05.008.05c.003.017.003.034.005.051l.004.051v.05c-.001.018 0 .036-.002.053 0 .017-.003.034-.005.05l-.007.054c-.002.016-.006.032-.01.049l-.012.054c-.004.016-.01.031-.015.047l-.018.054a1.224 1.224 0 0 0-.017.037 1.05 1.05 0 0 1-.56.552 1.16 1.16 0 0 1-.883.01l-1.436-.579-.02-.007-.02-.009-6.594-2.66a.68.68 0 0 0-.884.368.668.668 0 0 0 .372.875l6.594 2.66.021.007.019.009c.553.223.82.85.594 1.398-.225.547-.859.811-1.413.588l-8.859-3.574h-.001l-4.149-1.674a7.465 7.465 0 0 1-2.993-2.209 8.826 8.826 0 0 0-3.54-2.612h.001l-.841-.34 3.258-7.904.117.047c.11.044.267.107.688.123.527.024 1.4-.03 2.962-.25a98.503 98.503 0 0 0 3.888-.64l.113-.02.215-.04.17-.03.194-.037.21-.04.171-.031.262-.05.136-.025.41-.079c3.92-.754 7.705-1.594 7.875-1.632l.05-.008c.436-.063.863.186.988.588a.862.862 0 0 1-.572 1.073l-6.724 2.059a.672.672 0 0 0-.477.612.67.67 0 0 0 .421.65l12.311 4.966a1.071 1.071 0 0 1 .595 1.398 1.07 1.07 0 0 1-.584.583 1.095 1.095 0 0 1-.414.085h-.006c-.033 0-.066-.002-.099-.005-.01 0-.02-.003-.029-.004l-.075-.01-.047-.012-.056-.013-.057-.02-.045-.016-8.109-3.27a.68.68 0 0 0-.884.368.669.669 0 0 0 .372.875l9.83 3.964a1.066 1.066 0 0 1 .296 1.806l-.018.016a1.095 1.095 0 0 1-1.096.164l-1.721-.694z" fill="#F2AB00"/></svg>
